X: 1
T: The Kesh
R: Jig
M: 6/8
L: 1/8
K: G
|:G3 GAB|A3 ABd|edd gdd|edB dBA|
G3 GAB|A3 ABd|edd gdB|AGF G3:|
|:B3 dBd|ege dBG|B3 dBG|ABA AGA|
B3 dBd|ege dBd|gfg aga|bgf g3:|